archdroid-icon-theme/Archdroid-Green/apps/scalable/checkbox.svg

<svg fill="#4caf50" height="48" viewBox="0 0 48 48" width="48" xmlns="http://www.w3.org/2000/svg"><path d="m38 6h-28c-2.21 0-4 1.79-4 4v28c0 2.21 1.79 4 4 4h28c2.21 0 4-1.79 4-4v-28c0-2.21-1.79-4-4-4zm-18 28-10-10 2.83-2.83 7.17 7.17 15.17-15.17 2.83 2.83z" fill="#4caf50"/></svg>

<svg fill="#4caf50" height="48" version="1.1" viewBox="0 0 48 48" width="48" xmlns="http://www.w3.org/2000/svg"><path d="M38 6L10 6C7.79 6 6 7.79 6 10l0 28c0 2.21 1.79 4 4 4l28 0c2.21 0 4-1.79 4-4L42 10C42 7.79 40.21 6 38 6ZM20 34L10 24 12.83 21.17 20 28.34 35.17 13.17 38 16 20 34Z"/></svg>
